Origami/48x48/apps/ring.svg

<svg width="48" height="48" version="1.1" viewBox="0 0 48 48" xmlns="http://www.w3.org/2000/svg">
 <rect transform="matrix(.8660254 -.5 .5 .8660254 0 0)" x="2.28" y="11.66" width="12" height="44" rx="4" ry="4.4" style="opacity:.2"/>
 <rect transform="matrix(.8660254 -.5 .5 .8660254 0 0)" x="2.78" y="10.78" width="12" height="44" rx="4" ry="4.4" style="fill:#008ca2"/>
 <rect transform="matrix(-.8660254 -.5 -.5 .8660254 0 0)" x="-39.28" y="-12.34" width="12" height="44" rx="4" ry="4.4" style="opacity:.2"/>
 <path d="m16.255859 3.4662c-0.525749 0.0471258-1.043659 0.2034688-1.523437 0.4804688l-3.464844 2c-1.3841358 0.7991312-2.0494792 2.3708866-1.8632812 3.9765624 0.1351564-1.230068 0.7706922-2.345756 1.8632812-2.9765624l3.464844-2c1.919112-1.108 4.445262-0.3004768 5.664062 1.8105468l17.59961 30.484375c0.339754 0.588474 0.527642 1.213382 0.599608 1.833984 0.10224-0.930524-0.0747-1.924808-0.599608-2.833984l-17.59961-30.484375c-0.9141-1.5832676-2.563377-2.4323928-4.140625-2.2910156z" style="fill:#ffffff;opacity:.1"/>
 <rect transform="matrix(-.8660254 -.5 -.5 .8660254 0 0)" x="-38.78" y="-13.22" width="12" height="44" rx="4" ry="4.4" style="fill:#57c6d7"/>
 <path d="m31.744142 3.4662c-1.577248-0.141378-3.226526 0.707748-4.140626 2.2910156l-17.59961 30.484375c-0.5249126 0.909176-0.7018524 1.90346-0.5996092 2.833984 0.071967-0.620602 0.2598538-1.24551 0.5996092-1.833984l17.59961-30.484375c1.2188-2.1110236 3.74495-2.9185468 5.664062-1.8105468l3.464844 2c1.09259 0.6308064 1.728124 1.7464944 1.86328 2.9765624 0.1862-1.6056758-0.479144-3.1774312-1.86328-3.9765624l-3.464844-2c-0.479778-0.277-0.997688-0.433343-1.523436-0.4804688z" style="fill:#ffffff;opacity:.1"/>
 <rect transform="matrix(0,-1,-1,0,0,0)" x="-31" y="-46" width="12" height="44" rx="4" ry="4.4" style="opacity:.2"/>
 <rect transform="matrix(0,-1,-1,0,0,0)" x="-30" y="-46" width="12" height="44" rx="4" ry="4.4" style="fill:#94d4de"/>
 <path d="m6.4003906 17.999403c-2.4376 0-4.4003906 1.784-4.4003906 4v1c0-2.216 1.9627906-4 4.4003906-4h35.199217c2.4376 0 4.400392 1.784 4.400392 4v-1c0-2.216-1.962792-4-4.400392-4h-35.199217z" style="fill:#ffffff;opacity:.1"/>
</svg>

<svg xmlns="http://www.w3.org/2000/svg" width="48" height="48" version="1.1" viewBox="0 0 48 48">
 <rect style="opacity:0.2" width="12" height="44" x="2.28" y="11.66" rx="4" ry="4.4" transform="matrix(0.8660254,-0.5,0.5,0.8660254,0,0)"/>
 <rect style="fill:#008ca2" width="12" height="44" x="2.78" y="10.78" rx="4" ry="4.4" transform="matrix(0.8660254,-0.5,0.5,0.8660254,0,0)"/>
 <rect style="opacity:0.2" width="12" height="44" x="-39.28" y="-12.34" rx="4" ry="4.4" transform="matrix(-0.8660254,-0.5,-0.5,0.8660254,0,0)"/>
 <path style="opacity:0.1;fill:#ffffff" d="M 16.255859,3.4662 C 15.73011,3.5133258 15.2122,3.6696688 14.732422,3.9466688 l -3.464844,2 C 9.8834422,6.7458 9.2180988,8.3175554 9.4042968,9.9232312 9.5394532,8.6931632 10.174989,7.5774752 11.267578,6.9466688 l 3.464844,-2 c 1.919112,-1.108 4.445262,-0.3004768 5.664062,1.8105468 l 17.59961,30.4843754 c 0.339754,0.588474 0.527642,1.213382 0.599608,1.833984 0.10224,-0.930524 -0.0747,-1.924808 -0.599608,-2.833984 L 20.396484,5.7572156 C 19.482384,4.173948 17.833107,3.3248228 16.255859,3.4662 Z"/>
 <rect style="fill:#57c6d7" width="12" height="44" x="-38.78" y="-13.22" rx="4" ry="4.4" transform="matrix(-0.8660254,-0.5,-0.5,0.8660254,0,0)"/>
 <path style="opacity:0.1;fill:#ffffff" d="M 31.744142,3.4662 C 30.166894,3.324822 28.517616,4.173948 27.603516,5.7572156 L 10.003906,36.241591 c -0.5249126,0.909176 -0.7018524,1.90346 -0.5996092,2.833984 0.071967,-0.620602 0.2598538,-1.24551 0.5996092,-1.833984 L 27.603516,6.7572156 c 1.2188,-2.1110236 3.74495,-2.9185468 5.664062,-1.8105468 l 3.464844,2 c 1.09259,0.6308064 1.728124,1.7464944 1.86328,2.9765624 0.1862,-1.6056758 -0.479144,-3.1774312 -1.86328,-3.9765624 l -3.464844,-2 C 32.7878,3.6696688 32.26989,3.5133258 31.744142,3.4662 Z"/>
 <rect style="opacity:0.2" width="12" height="44" x="-31" y="-46" rx="4" ry="4.4" transform="matrix(0,-1,-1,0,0,0)"/>
 <rect style="fill:#94d4de" width="12" height="44" x="-30" y="-46" rx="4" ry="4.4" transform="matrix(0,-1,-1,0,0,0)"/>
 <path style="opacity:0.1;fill:#ffffff" d="m 6.4003906,17.999403 c -2.4376,0 -4.4003906,1.784 -4.4003906,4 l 0,1 c 0,-2.216 1.9627906,-4 4.4003906,-4 l 35.1992174,0 c 2.4376,0 4.400392,1.784 4.400392,4 l 0,-1 c 0,-2.216 -1.962792,-4 -4.400392,-4 l -35.1992174,0 z"/>
</svg>
